X:30
T:Orange In Bloom
Z:Steve Mansfield
S:Chris Ryall
N:OK, so it's actually English (thanks Boz!), but it's a good Valse
N:anyway ..
R:waltz
M:3/4
L:1/4
K:G
D | E>GE | DGA | BdB | A2B/A/ | G2EE | DGA |
BGG |1 G2: |2 G3 | :B>AB/c/ | dBG | AGA |
Bcd | edB | A2G/2A/2 | BAG | E2D | E2E/2E/2 | DGA |
BdB | A2B/A/ | G2E/2E/2 | DGA | BG>G | G3 :|
